X: 3
T: Maurice Lennon's Jig
B: sean kenan irish music
M:6/8
Q: 3/8=100
K:G
V:1 
|:D|"G"G2e dBG|"D"AGE "Em"GED|"C"E3 "G"DGA|"Am7"BAG "D7"A2D|
"G"G2e dBG|"D"AGE "Em"GED|"C"E3 "G"DGB|"D"AGF "G"G2:|
|:D|"G"GBd dBd|"Bm"gdB "D"cBA|"G"Ged dBd|"Em"edB "D7"A2D|
"G"GBd dBd|"Bm"gdB "D7"cBA| "Em"B3 "C"AGF|"D7"DGF "G"G2:|
% abcbook-tune_id 4385


% abcbook-boost 0
% abcbook-tablature 
% abcbook-transpose 0
% abcbook-lastupdated 1666677760840
% abcbook-soundfonts 
% abcbook-repeats 1


